!!!COM: Scarlatti, Domenico
!!!CDT: 1685-1757
!!!OTL: Sonata in G minor, L.340, K.476
!!!SCT: K. 476
!!!SCT: L. 340
!!!OMD: Allegro ([quarter-dot]=88)
**kern	**kern	**dynam
*staff2	*staff1	*staff1/2
*Icemba	*Icemba	*
*I"L.340 (K.476)	*I"L.340 (K.476)	*
*>[A,A,B,B]	*>[A,A,B,B]	*>[A,A,B,B]
*>norep[A,B]	*>norep[A,B]	*>norep[A,B]
*>A	*>A	*>A
*clefF4	*clefG2	*
*k[b-e-]	*k[b-e-]	*
*g:	*g:	*
*M3/8	*M3/8	*
*MM132	*MM132	*
=1-	=1-	=1-
4.GG	(8ggL	mf
.	8dd	.
.	8b-J)	.
=2	=2	=2
4.G 4.c 4.e-	(8ee-L	.
.	8cc	.
.	8aJ)	.
=3	=3	=3
4.G 4.B- 4.d	(8ddL	.
.	8b-	.
.	8gJ)	.
=4	=4	=4
4.G 4.A 4.c	(8ccL	.
.	8a	.
.	8f#J)	.
=5	=5	=5
*	*^	*
4G 4B-	4b-	(8gL	.
.	.	8d)	.
8C' 8G'	8a	8e-'J	.
*	*v	*v	*
=6	=6	=6
4BB- 4G	(8gL	.
.	8d)	.
8C' 8G'	8e-' 8a'J	.
!!LO:LB:g=z
=7	=7	=7
4BB- 4G	(8gL	.
.	8d)	.
8C' 8G'	8e-' 8a'J	.
=8	=8	=8
4BB- 4G	(8gL	.
.	8d)	.
8C' 8G'	8e-' 8a'J	.
=9	=9	=9
(8BB- 8GL	(8gL	.
8AA) 8F#	8a)	.
8GG' 8G'J	8g' 8b-'J	.
=10	=10	=10
4C	(8a 8ccL	.
.	8g) 8b-	.
8D'/	8f#' 8a'J	.
=11	=11	=11
*	*^	*
4GG 4G	(8b-L	4g	<
.	8dd	.	.
8C' 8G'	8ee-'J)	8f#	.
=12	=12	=12	=12
4BB- 4G	(8ee-L	4g	.
.	8dd	.	.
8C' 8G'	8ee-'J)	8f#	.
=13	=13	=13	=13
4BB- 4G	(8ee-L	4g	.
.	8dd)	.	.
8C' 8G'	8ee-'J	8f#	.
!!LO:LB:g=z
=14	=14	=14	=14
4BB- 4G	(8ee-L	4g	.
.	8dd)	.	.
8C' 8G'	8ee-'J	8f#	.
=15	=15	=15	=15
4BB- 4G	(8ddL	4g	.
.	8cc)	.	.
8BB-' 8G'	8b-'J	8g	.
*	*v	*v	*
=16	=16	=16
4C	(8a 8ccL	.
.	8g) 8b-	.
8D'	8f#' 8a'J	.
=17	=17	=17
*ped	*	*
8GG'	8g'L>	f
8g'L	8b-'	.
8d'J	8dd'J	.
=18	=18	=18
*Xped	*	*
8B-'L	8gg'L	.
8G'	8bb-'	.
8D'J	8ddd'J	.
=19	=19	=19
*ped	*	*
8GG'^	8ggg'^L	.
8g'L	8b-'	.
8d'J	8dd'J	.
=20	=20	=20
*Xped	*	*
8B-'L	8gg'L	.
8G'	8bb-'	.
8D'J	8ddd'J	.
!!LO:LB:g=z
=21	=21	=21
*ped	*	*
8GG'^	8ggg'^L	.
8g'L	8b-'	.
8d'J	8dd'J	.
=22	=22	=22
*Xped	*	*
8B-'L	8ggL	.
8G'	8bb-'	.
8D'J	8ddd'J	.
=23	=23	=23
8GG'^	4.ggg^	.
*clefG2	*	*
8g'L	.	.
8g'J	.	.
=24	=24	=24
*^	*	*
.	.	(16bb-qq	.
(8fL	4.f	4.aa-)	mf
8dd	.	.	.
8ccJ)	.	.	.
=25	=25	=25	=25
(8bnL	4f	4dd	.
8g)	.	.	.
8ccJ	8e-	8gg'	.
*v	*v	*	*
=26	=26	=26
4f 4cc	(8ffL	.
.	8ee-)	.
8g' 8bn'	8dd'J	.
=27	=27	=27
.	(16ffqq	.
4.c^	(8ee-TL)	>
.	8dd)	.
.	8cc'J	]]
!!LO:LB:g=z
=28	=28	=28
*^	*	*
.	.	(16cccqq	.
(8gL	4.g	4.bb-)	.
8een	.	.	.
8ddJ)	.	.	.
=29	=29	=29	=29
(8cc#L	4g	4een	.
8a)	.	.	.
8dd'J	8f'	8aa'	.
*v	*v	*	*
=30	=30	=30
4g/ 4dd/	(8ggL	.
.	8ff)	.
8a'/ 8cc#'/	8eenJ	.
=31	=31	=31
4.d^	(16ffLL	>
.	16dd	.
.	16cc#	.
.	16dd	.
.	16cc#	.
.	16ddJJ	]
=32	=32	=32
8b-'L	16eenLL	p
.	16dd	.
8a'	16ff	.
.	16dd	.
8g'J	16gg	.
.	16ddJJ	.
=33	=33	=33
8f'L	16aaLL	<
.	16dd	.
8en'	16cc#	.
.	16dd	.
8d'J	16cc#	.
.	16ddJJ	.
!!LO:LB:g=z
=34	=34	=34
8b-'L	16eenLL	.
.	16dd	.
8a'	16ff	.
.	16dd	.
8g'J	16gg	.
.	16ddJJ	.
=35	=35	=35
8f'L	16aaLL	.
.	16dd	.
8en'	16cc#	.
.	16dd	.
8d'J	16cc#	.
.	16ddJJ	.
=36	=36	=36
8b-'L	16eenLL	.
.	16dd	.
8a'	16ff	.
.	16dd	.
8gJ	16gg	.
.	16ddJJ	.
=37	=37	=37
4.f^ 4.a^	16aaLL	f
.	16gg	.
.	16ff	.
.	16een	.
.	16dd	.
.	16ccJJ	.
*clefF4	*	*
=38	=38	=38
4.G^	16b-LL	.
.	16a	.
.	16g	.
.	16f	.
.	16en	.
.	16dJJ	.
=39	=39	=39
4.AA^	4.A)mm	.
!!LO:LB:g=z
=40	=40	=40
(16dLL	[4.aa	p
16c#	.	.
16en	.	.
16d	.	.
16f	.	.
16eJJ)	.	.
=41	=41	=41
*ped	*	*
4.AA^	(16aaLL]	<
.	16een	.
.	16cc#	.
.	16a	.
.	16cc#	.
.	16eeJJ	.
=42	=42	=42
(16dLL	[4.aa)	.
16c#	.	.
16en	.	.
16d	.	.
16f	.	.
16eJJ)	.	.
=43	=43	=43
*ped	*	*
4.GG^	(16aaLL]	.
.	16een	.
.	16cc#	.
.	16a	.
.	16cc#	.
.	16eeJJ	.
=44	=44	=44
(16enLL	[4.aa)	.
16d	.	.
16f	.	.
16e	.	.
16g	.	.
16fJJ)	.	.
!!LO:LB:g=z
=45	=45	=45
*ped	*	*
4.FF^	(16aaLL]	.
.	16ff	.
.	16dd	.
.	16a	.
.	16dd	.
.	16ffJJ	.
=46	=46	=46
(16fLL	[4.aa)	.
16en	.	.
16g	.	.
16f	.	.
16a	.	.
16gJJ)	.	.
=47	=47	=47
*ped	*	*
4.EEn^	(16aaLL]	.
.	16een	.
.	16cc#	.
.	16a	.
.	16cc#	.
.	16eeJJ	.
=48	=48	=48
(16gLL	[4.aa)	.
16f	.	.
16a	.	.
16g	.	.
16b-	.	.
16aJJ)	.	.
*Xped	*	*
=49	=49	=49
(4.DD	(<16aaLL]	f
.	16dd	.
.	16ddd	.
.	16cccn	.
.	16bb-	.
.	16aaJJ	.
!!LO:LB:g=z
=50	=50	=50
4.GG	16bb-LL	.
.	16aa	.
.	16gg	.
.	16ff	.
.	16een	.
.	16ddJJ	.
=51	=51	=51
4.AA	16cc#LL	.
.	16b-X	.
.	16a	.
.	16g	.
.	16f	.
.	16enJJ	.
=52	=52	=52
8D'L)	16fLL	.
.	16g	.
8GG'	16a	.
.	16d	.
8AA'J	16c#	.
.	16enJJ	.
=53	=53	=53
4.DD	16dLL	.
.	16A	.
.	16f	.
.	16d	.
.	16a	.
.	16fJJ	.
=54	=54	=54
(16dLL	[4.aa^)	>
16c#	.	.
16en	.	.
16d	.	.
16f	.	.
16eJJ)	.	]
!!LO:LB:g=z
=55	=55	=55
*ped	*	*
4.AA	(16aaLL]	p
.	16een	.
.	16cc#	.
.	16a	.
.	16cc#	.
.	16eeJJ	.
=56	=56	=56
(16dLL	[4.aa)	<
16c#	.	.
16en	.	.
16d	.	.
16f	.	.
16eJJ)	.	.
=57	=57	=57
*ped	*	*
4.GG	(16aaLL]	.
.	16een	.
.	16cc#	.
.	16a	.
.	16cc#	.
.	16eeJJ	.
=58	=58	=58
(16enLL	[4.aa)	.
16d	.	.
16f	.	.
16e	.	.
16g	.	.
16fJJ)	.	.
=59	=59	=59
*ped	*	*
4.FF	(16aaLL]	.
.	16ff	.
.	16dd	.
.	16a	.
.	16dd	.
.	16ffJJ	.
!!LO:LB:g=z
=60	=60	=60
(16fLL	[4.aa)	.
16en	.	.
16g	.	.
16f	.	.
16a	.	.
16gJJ)	.	.
=61	=61	=61
*ped	*	*
4.EEn	(16aaLL]	.
.	16een	.
.	16cc#	.
.	16a	.
.	16cc#	.
.	16eeJJ	.
=62	=62	=62
(16gLL	[4.aa)	.
16f	.	.
16a	.	.
16g	.	.
16b-	.	.
16aJJ)	.	.
=63	=63	=63
*Xped	*	*
(4.DD	(<16aaLL]	f
.	16dd	.
.	16ddd	.
.	16cccn	.
.	16bb-	.
.	16aaJJ	.
=64	=64	=64
4.GG	16bb-LL	.
.	16aa	.
.	16gg	.
.	16ff	.
.	16een	.
.	16ddJJ	.
!!LO:LB:g=z
=65	=65	=65
4.AA	16cc#LL	.
.	16b-X	.
.	16a	.
.	16g	.
.	16f	.
.	16enJJ	.
=66	=66	=66
8D'L)	16fLL	.
.	16g	.
8GG'	16a	.
.	16d	.
8AA'J	16c#	.
.	16enJJ	.
=67	=67	=67
16r	4.d)	.
(16DLL	.	p
16En	.	<
16F	.	.
16G	.	.
16AJJ	.	.
=68	=68	=68
16BnLL	4.r	.
16c#	.	.
16d	.	.
16en	.	.
16f	.	.
16gJJ)	.	.
!!LO:LB:g=z
=69	=69	=69
*	*^	*
(4AA	8r	8r	.
.	8cc# 8een (8ggL	4a	f
8D/)	8dd 8ffJ)	.	.
*	*v	*v	*
=70	=70	=70
4GG	8g' 8een'L	.
.	8f' 8dd'	.
8AA'	8en' 8cc#'J	.
=71	=71	=71
16r	4.d@ 4.dd	p
(16DLL	.	<
16En	.	.
16F	.	.
16G	.	.
16AJJ	.	.
=72	=72	=72
16BnLL	4.r	.
16c#	.	.
16d	.	.
16en	.	.
16f	.	.
16gJJ)	.	.
=73	=73	=73
*	*^	*
(4AA	8r	8r	.
.	8cc# 8een (8ggL	4a	f
8D/)	8dd 8ffJ)	.	.
*	*v	*v	*
!!LO:LB:g=z
=74	=74	=74
4GG	8g' 8een'L	.
.	8f' 8dd'	.
8AA'	8en' 8cc#'J	.
=75	=75	=75
4.DD^	(16ddLL	.
.	16a	.
.	16bn	.
.	16cc#	.
.	16dd	.
.	16eenJJ	.
=76	=76	=76
*^	*	*
4.d	(4F	16ffLL	.
.	.	16gg	.
.	.	16aa	.
.	.	16bbn	.
.	8G	16ccc#	.
.	.	16dddJJ	.
*v	*v	*	*
=77	=77	=77
4A)	8aaL	.
.	8gg)	.
8B-'	8ff'J	.
=78	=78	=78
8G'L	8een'L	.
8A'	8dd'	.
8AAJ	8cc#'Jm	.
!!LO:LB:g=z
=79	=79	=79
4.D^	16dd'	.
.	(16ALL	.
.	16Bn	.
.	16c#	.
.	16d	.
.	16enJJ	.
=80	=80	=80
(4FF	16fLL	.
.	16g	.
.	16a	.
.	16bn	.
8GG	16cc#	.
.	16ddJJ	.
=81	=81	=81
4AA)	8aL	.
.	8g)	.
8BB-'	8f'J	.
=82	=82	=82
8GG'L	8en'L	.
8AA'	8d'	.
8AAA'J	8c#'Jm<	.
=83	=83	=83
4.DD^	4.d^	.
!!LO:LB:g=z
=84:|!|:	=84:|!|:	=84:|!|:
*>B	*>B	*>B
4.DD	16r	p
.	(16dLL	.
.	16e-X	.
.	16d	.
.	16en	.
.	16dJJ	.
=85	=85	=85
8D' 8c'L	16f#LL	.
.	16d	<
8D' 8B-'	16g	.
.	16d	.
8D' 8A'J	16a	.
.	16dJJ	.
=86	=86	=86
4.D 4.G	16b-LL)	[
.	(16d	.
.	16e-	.
.	16d	.
.	16en	.
.	16dJJ	.
=87	=87	=87
8D' 8c'L	16f#LL	.
.	16d	<
8D' 8B-'	16g	.
.	16d	.
8D' 8A'J	16a	.
.	16dJJ	[[
=88	=88	=88
4.G	16b-LL)	.
.	(16e-X	<
.	16f	.
.	16e-	.
.	16g	.
.	16fJJ	[
!!LO:LB:g=z
=89	=89	=89
8F' 8e-'L	16aLL	<
.	16f	.
8F' 8d'	16b-	.
.	16f	.
8F' 8c'J	16cc	.
.	16fJJ	.
=90	=90	=90
4.F 4.B-	16ddLL)	.
.	(<16e-	.
.	16f	.
.	16e-	.
.	16g	.
.	16fJJ	[
=91	=91	=91
8F' 8e-'L	16aLL	<
.	16f	.
8F' 8d'	16b-	.
.	16f	.
8F' 8c'J	16cc	.
.	16fJJ	.
=92	=92	=92
4.B-	16ddLL)	[
.	(16a-	.
.	16b-	.
.	16a-	.
.	16cc	.
.	16b-JJ	.
*clefG2	*	*
=93	=93	=93
8B-' 8a-'L	16ddLL	<
.	16b-	.
8B-' 8g'	16ee-	.
.	16b-	.
8B-' 8f'J	16ff	.
.	16b-JJ	.
=94	=94	=94
4.B- 4.e-	16ggLL)	[
.	(16a-	.
.	16b-	.
.	16a-	.
.	16cc	.
.	16b-JJ	.
!!LO:LB:g=z
=95	=95	=95
8B-' 8a-'L	16ddLL	<
.	16b-	.
8B-' 8g'	16ee-	.
.	16b-	.
8B-' 8f'J	16ff	.
.	16b-JJ	[[
*clefF4	*	*
=96	=96	=96
*ped	*	*
(<4.E-^	(16ggLL)	f
.	16ee-	.
.	16b-	.
.	16g	.
.	16b-	.
.	16ee-JJ	.
=97	=97	=97
4.EE-^)	16ggLL	.
.	16ee-	.
.	16b-	.
.	16g	.
.	16b-	.
.	16ee-JJ	.
=98	=98	=98
4.EE-^	16ggLL	.
.	16ee-	.
.	16b-	.
.	16g	.
.	16b-	.
.	16ee-JJ	.
=99	=99	=99
8EE-'	16ggLL	.
.	16bb-JJ	.
*Xped	*	*
8r	8gg')	.
8r	8r	.
=100	=100	=100
4.r;	4.r;	.
!!LO:LB:g=z
=101	=101	=101
*ped	*	*
4.AAA^	(16ggLL	f
.	16een	.
.	16cc#	.
.	16a	.
.	16cc#	.
.	16eeJJ	.
=102	=102	=102
4.AAA^	16ggLL	.
.	16een	.
.	16cc#	.
.	16a	.
.	16cc#	.
.	16eeJJ	.
=103	=103	=103
4.AAA^	16ggLL	.
.	16een	.
.	16cc#	.
.	16a	.
.	16cc#	.
.	16eeJJ	.
=104	=104	=104
8AAA'	16ggLL	.
.	16bb-JJ	.
*Xped	*	*
8r	8gg')	.
8r	8r	.
=105	=105	=105
4.r;	4.r;	.
!!LO:LB:g=z
=106	=106	=106
*ped	*	*
4.DD^	(16aaLL	f
.	16ff#	.
.	16cc	.
.	16a	.
.	16cc	.
.	16ff#JJ	.
=107	=107	=107
4.DD^	16aaLL	.
.	16ff#	.
.	16cc	.
.	16a	.
.	16cc	.
.	16ff#JJ	.
=108	=108	=108
4.DD^	16aaLL	.
.	16ff#	.
.	16cc	.
.	16a	.
.	16cc	.
.	16ff#JJ	.
=109	=109	=109
8DD'	16aaLL	.
.	16cccJJ	.
*Xped	*	*
8r	8aa')	.
8r	8r	.
=110	=110	=110
4.r;	4.r;	.
!!LO:LB:g=z
=111	=111	=111
8GG'L	(16dddLL	f
.	16ccc	.
8AA'	16bb-	.
.	16aa	.
8BB-'J	16gg	.
.	16ffJJ	.
=112	=112	=112
8CL	16ee-LL	.
.	16dd	.
8D'	16cc	.
.	16b-	.
8E-'J	16a	.
.	16gJJ	.
=113	=113	=113
8D'L	16f#LL	.
.	16e-	.
8En'	16d	.
.	16c	.
8F#'J	16B-	.
.	16AJJ	.
=114	=114	=114
8G'L	16B-LL	.
.	16d	.
8Fn'	16A	.
.	16d	.
8E-'J	16G	.
.	16gJJ)	.
=115	=115	=115
4.D^	(8gLM<	.
.	16f#L	.
.	16enJ	.
.	8d'J)	.
*clefG2	*	*
!!LO:LB:g=z
=116	=116	=116
(16gLL	[4.ddd	p
16f#	.	.
16a	.	.
16g	.	.
16b-	.	.
16aJJ)	.	.
*clefF4	*	*
=117	=117	=117
*ped	*	*
4.D^/	(16dddLL]	<
.	16aa	.
.	16ff#	.
.	16dd	.
.	16ff#	.
.	16aaJJ	.
*clefG2	*	*
=118	=118	=118
(16gLL	[4.ddd)	.
16f#	.	.
16a	.	.
16g	.	.
16b-	.	.
16aJJ)	.	.
*clefF4	*	*
=119	=119	=119
*ped	*	*
4.C^	(16dddLL]	.
.	16aa	.
.	16ff#	.
.	16dd	.
.	16ff#	.
.	16aaJJ	.
*clefG2	*	*
=120	=120	=120
(16aLL	[4.ddd)	.
16g	.	.
16b-	.	.
16a	.	.
16cc	.	.
16b-JJ)	.	.
*clefF4	*	*
!!LO:LB:g=z
=121	=121	=121
*ped	*	*
4.BB-^	(16dddLL]	.
.	16bb-	.
.	16gg	.
.	16dd	.
.	16gg	.
.	16bb-JJ	.
*clefG2	*	*
=122	=122	=122
(16b-LL	[4.ddd)	.
16a	.	.
16cc	.	.
16b-	.	.
16dd	.	.
16ccJJ)	.	.
*clefF4	*	*
=123	=123	=123
*ped	*	*
4.AA^	(16dddLL]	.
.	16aa	.
.	16ff#	.
.	16dd	.
.	16ff#	.
.	16aaJJ	.
*clefG2	*	*
=124	=124	=124
(16ccLL	[4.ddd)	.
16b-	.	.
16dd	.	.
16cc	.	.
16ee-	.	.
16ddJJ)	.	.
*clefF4	*	*
!!LO:LB:g=z
=125	=125	=125
*Xped	*	*
(4.GG^	(16dddLL]	f
.	16ccc	.
.	16bb-	.
.	16aa	.
.	16gg	.
.	16ffnJJ	.
=126	=126	=126
4.C	16ee-LL	.
.	16dd	.
.	16cc	.
.	16b-	.
.	16a	.
.	16gJJ	.
=127	=127	=127
4.D	16f#LL	.
.	16ee-	.
.	16dd	.
.	16cc	.
.	16b-	.
.	16aJJ	.
=128	=128	=128
8G'L)	16b-LL	.
.	16cc	.
8C'	16dd	.
.	16g	.
8D'J	16f#	.
.	16aJJ	.
=129	=129	=129
4.GG^	16gLL	.
.	16d	.
.	16b-	.
.	16g	.
.	16dd	.
.	16b-JJ)	.
*clefG2	*	*
!!LO:LB:g=z
=130	=130	=130
(16gLL	[4.ddd	>
16f#	.	.
16a	.	.
16g	.	.
16b-	.	.
16aJJ)	.	]]
*clefF4	*	*
=131	=131	=131
*ped	*	*
4.D^	(16dddLL]	p
.	16aa	.
.	16ff#	.
.	16dd	.
.	16ff#	.
.	16aaJJ	.
*clefG2	*	*
=132	=132	=132
(16gLL	[4.ddd)	<
16f#	.	.
16a	.	.
16g	.	.
16b-	.	.
16aJJ)	.	.
=133	=133	=133
*ped	*	*
4.a^	(16dddLL]	.
.	16aa	.
.	16ff#	.
.	16dd	.
.	16ff#	.
.	16aaJJ	.
*clefG2	*	*
=134	=134	=134
(16aLL	[4.ddd)	.
16g	.	.
16b-	.	.
16a	.	.
16cc	.	.
16b-JJ)	.	.
*clefF4	*	*
!!LO:LB:g=z
=135	=135	=135
*ped	*	*
4.BB-^	(16dddLL]	.
.	16bb-	.
.	16gg	.
.	16dd	.
.	16gg	.
.	16bb-JJ	.
*clefG2	*	*
=136	=136	=136
(16b-LL	[4.ddd)	.
(16a)	.	.
16cc	.	.
16b-	.	.
16dd	.	.
16ccJJ)	.	.
*clefF4	*	*
=137	=137	=137
*ped	*	*
4.AA^	(16dddLL]	.
.	16aa	.
.	16ff#	.
.	16dd	.
.	16ff#	.
.	16aaJJ	.
*clefG2	*	*
=138	=138	=138
(16ccLL	[4.ddd)	.
16b-	.	.
16dd	.	.
16cc	.	.
16ee-	.	.
16ddJJ)	.	.
*clefF4	*	*
=139	=139	=139
*Xped	*	*
(4.GG^	16dddLL]	f
.	(16ccc	.
.	16bb-	.
.	16aa	.
.	16gg	.
.	16ffnJJ	.
!!LO:LB:g=z
=140	=140	=140
4.C	16ee-LL	.
.	16dd	.
.	16cc	.
.	16b-	.
.	16a	.
.	16gJJ	.
=141	=141	=141
4.D	16f#LL	.
.	16ee-	.
.	16dd	.
.	16cc	.
.	16b-	.
.	16aJJ	.
=142	=142	=142
8G'L)	16b-LL	.
.	16cc	.
8C'	16dd	.
.	16g	.
8D'J	16f#	.
.	16aJJ	.
=143	=143	=143
16r	4.g)	.
(16GLL	.	p
16A	.	<
16B-	.	.
16c	.	.
16dJJ	.	.
*clefG2	*	*
=144	=144	=144
16enLL	4.r	.
16f#	.	.
16g	.	.
16a	.	.
16b-	.	.
16ccJJ)	.	.
*clefF4	*	*
!!LO:LB:g=z
=145	=145	=145
*	*^	*
(4D	8r	4.d^	f
.	8f# 8a (8ccL	.	.
8G)	8g 8b-J)	.	.
*	*v	*v	*
=146	=146	=146
4C	8c' 8a'L	.
.	8B-' 8g'	.
8D'/	8A' 8f#'J	.
=147	=147	=147
16r	4.G@ 4.g	.
(16GGLL	.	p
16AA	.	<
16BB-	.	.
16C	.	.
16DJJ	.	.
=148	=148	=148
16EnLL	4.r	.
16F#	.	.
16G	.	.
16A	.	.
16B-	.	.
16cJJ)	.	.
=149	=149	=149
*	*^	*
(4DD	8r	4.d^	f
.	8f# 8a (8ccL	.	.
8GG)	8g 8b-J)	.	.
*	*v	*v	*
!!LO:LB:g=z
=150	=150	=150
4CC	8c' 8a'L	.
.	8B-' 8g'	.
8DD'	8A' 8f#'J	.
=151	=151	=151
4.GG 4.G	(16gLL	.
.	16d	.
.	16en	.
.	16f#	.
.	16g	.
.	16aJJ	.
=152	=152	=152
*^	*	*
4.G	(4BB-	16b-LL	.
.	.	16cc	.
.	.	16dd	.
.	.	16ee-X	.
.	8C	16ff#	.
.	.	16ggJJ	.
*v	*v	*	*
=153	=153	=153
4D)	8ddL	.
.	8cc)	.
8E-X'	8b-'J	.
=154	=154	=154
8C'L	8a'L	.
8D'	8g'	.
8DD'J	8f#'Jm<	.
!!LO:LB:g=z
=155	=155	=155
4.GG	(16gLL	.
.	16d	.
.	16en	.
.	16f#	.
.	16g	.
.	16aJJ	.
=156	=156	=156
*^	*	*
4.G	(4BB-	16b-LL	.
.	.	16cc	.
.	.	16dd	.
.	.	16ee-X	.
.	8C	16ff#	.
.	.	16ggJJ	.
*v	*v	*	*
=157	=157	=157
4D)	8ddL	.
.	8cc)	.
8E-'	8b-'J	.
=158	=158	=158
8C'L	8a'L	.
8D'	8g'	.
8DD'J	8f#'Jm<	.
=159	=159	=159
4.GGG^	4.g^	.
==:|!	==:|!	==:|!
*-	*-	*-
!!!RDF**kern: > = above
!!!RDF**kern: < = below
!!!RDF**kern: @ = marked note, color="silver", optional note
!!!verovio: beamFrenchStyle 1
!!!URL-vhv: https://verovio.humdrum.org/?file=scarlatti/sonatas/L340K476.krn
!!!URL-pdf: https://github.com/craigsapp/scarlatti-keyboard-sonatas/blob/master/reference-edition/L340K476.pdf
!!!PTL: Domenico Scarlatti: Opere complete per clavicembalo
!!!PED: Longo, Alessandro
!!!PPR: Ricordi
!!!PPP: Milan
!!!PDT: 1906-1913
!!!YEC: 2021 Craig Stuart Sapp
!!!YEM: Licence: (CC BY-NC-SA 4.0) https://creativecommons.org/licenses/by-nc-sa/4.0
!!!ENC: Craig Stuart Sapp
!!!END: 2004/10/30
!!!EED: Craig Stuart Sapp
!!!EEV: 2021/06/16
